X: 26387
T: Merry Days Of Easter, The
R: reel
M: 4/4
K: Gmajor
c|B~G3 DEGA|Bdgd cAAc|B~G3 DEGA|Bdgd BGGA|
~B3d ~c3A|Bdgd cAAc|B~G3 DEGA|Bdgd BGG2||
bgaf ~g4|e~a3 eaga|bgaf gfed|^cde=c B/c/d ga|
bgaf gbfg|ea a/a/a eaab|{c'}babe agef|gbag {a}gedc||

